!!!OTL: Hongqi chabian dabieshan
!!!ARE: Asia, China,ÿHubei Macheng
!! I, 404, 2)
!!!SCT: C2154
!!!YEM: Copyright 1995, estate of Helmut Schaffrath.
**kern
*ICvox
*Ivox
*M2/4
*k[]
*C:
{4a
8dd
8ee
=1
8dd
4dd
8ee
=2
8cc
16dd
16ee
8dd
8a
=3
8g
8e
4g}
=4
{4g
4cc
=5
4dd
4ee
=6
8dd
8a
4g}
=7
{8cc
16dd
16ee
8cc
8a
=8
8cc
16dd
16ee
8cc
8a
=9
8e
16e
16g
16a
16cc
8g
=10
8a
8e
4g}
=11
{8.cc
16a
8g
8cc
=12
8g
16a
16cc
8a
8e
=13
8g
16a
16cc
16a
16g
8e
=14
2d}
==
!!!AGN: Xiaodiao
!!!ONB: ESAC (Essen Associative Code) Database: SENGANSU
!!!AMT: simple duple
!!!AIN: vox
!!!EED: Helmut Schaffrath
!!!EEV: 1.0
*-
